archdroid-icon-theme/Archdroid-Red/status/scalable/progress-70-symbolic.svg

<svg height="48" width="48" xmlns="http://www.w3.org/2000/svg"><path d="m24.328125 6.003906a18 18 0 0 0 -10.21875 2.957032 18 18 0 0 0 -7.353516 20.201171 18 18 0 0 0 17.244141 12.837891v-4a14 14 0 0 1 -14-14 14 14 0 0 1 14-14 14 14 0 0 1 8.998047 3.277344l2.572266-3.066406a18 18 0 0 0 -11.242188-4.207032z" fill="#F44336" stroke-width="3" transform=""/></svg>

<svg height="48" version="1.1" width="48" xmlns="http://www.w3.org/2000/svg"><g transform="translate(0 -1004.3622)"><path d="M24.328125 6.003906A18 18 0 0 0 14.109375 8.960938 18 18 0 0 0  6.755859 29.162109 18 18 0 0 0  24 42L24 38A14 14 0 0 1 10 24 14 14 0 0 1  24 10 14 14 0 0 1  32.998047 13.277344L35.570313 10.210938A18 18 0 0 0 24.328125 6.003906z" fill="#F44336" stroke-width="3" transform="translate(0 1004.3622)"/></g></svg>
